X:1
T:Filli, mia Filli
T:Filli, mia Filli
T:Piero Benedetti
T:Source : Musische di P.Benedetti---Libro secondo---Venetia---R.Amadino---1613. Editor : André Vierendeels (17/06/15).
T:S 1
T:Notes : Original clefs : C1, F4 Figures in BC are notated in original print m10 in BC, "re" notated as "la" in original print To sing it by two sopranos is an editorial suggestion Dedicated "Al Sig.Ferdinando Martelli"
C:Piero Benedetti
%%score 1 2
L:1/8
Q:1/4=120
M:4/4
K:F
V:1 treble nm="Soprano     1 + 2" snm="S"
V:2 bass nm="BC" snm="BC"
V:1
 G6 A2 | ^F8 | c6 d/c/B/A/ | B6 A2 | z2 d2 B2 A2 | G/F/E/F/ G/F/G/A/ G/A/B/A/ B/c/B/c/ | %6
w: Fil- li,|mia|Fil- li _ _ _|dol- ce,|al tuo ri-|tor- * * * * * * * * * * * * * * *|
 d2 d<B c<A B<G | A8 |[M:3/4] A2 B2 c/A/B/c/ | d6 |[M:4/4] z f_ed c4- | c2 B2 A4 | G8 | %13
w: |no,|gio- i- sce'il _ _ _|Ciel,|si ras- se- ren|_ il gior-|no,|
 z2 z G G4- | G4 z A A2- | AE ^F4 F2 | B3 c _e4- | e2 dc c2 c2 | z d d4 d/c/B/A/ | %19
w: el mio|_ gia me-|* sto co- re|nuo- va for-|* za ri- pren- de,|è nuo- v'ar- * * *|
 B/A/G/F/ G/F/E/D/ C/D/E/F/ G/A/B/c/ | d/e/f/g/ A/B/c/d/ BABG | A8 | G8 |:[K:C]"^S 2" z2 d2 fedc | %24
w: do- * * * * * * * * * * * * * * *|||re.|Hor me fe- li- ce'a|
 d8 | c8 | e4 BcdG | A4 A4 | z2 AA c2 Bc | ^G4 G4 | e6 A2 | A4 d3 A | B4 B4 | z2 z B d4- | %34
w: pie-|no|se giun- to se- no'à|se- no,|ot- ter- ro per mer-|ce- de|fer- m'A-|mor, fal- da|vo- glia|in te-|
 d2 c/B/A/G/ A4 | G8 :| %36
w: * ra _ _ _ fe-|de.|
V:2
 G,4 _E,4 | D,8 | C,8 |"^#" G,4 D,4 |"^#" D,4 G,,4 | G,,8- | G,,8 |"^#" D,8 | %8
[M:3/4]"^#" D,2 G,2 A,2 | D,6 |[M:4/4] B,,4 C,4 |"^#""^#""^4" D,2 D,4 D,2 |"^-natural" G,,8 | %13
 C,4 =B,,4 | C,4 ^C,4- | C,2 D,4 D,2 | G,8 |"^3      4" F,2 F,2 F,4 | ^F,4 G,4 | G,,4 C,4 | G,,8 | %21
"^4""^#" D,4 D,4 |"^-natural" G,,8 |:[K:C] C,4 F,2 E,2 |"^4       3" G,4 G,4 | C,8 | C,4 G,,4 | %27
"^#" D,8 |"^#" D,4 A,,4 | E,8 | E,2 D,2 ^C,4 |"^#" D,8 | G,,8 | B,,6 A,,G,, | %34
"^#""^4""^#" D,2 D,4 D,2 | G,,8 :| %36

